X: 1
T: Phil Cunningham's
M: 4/4
L: 1/8
R: reel
K: Amaj
|:A,2 CE A2 cA|BAGB Acea|fedc dcBA|c2 B2 B2 c2|
A,2 CE A2 cA|BAGB Acea|fedc dcBA|1 E2 A2 A2 CB,:|2 E2 A2 A2 (cd)||
|:eAce aAce|f2 d2 d2 (Bc)|dBdf bBdf|g2 e2 e2 (cd)|
eAce fAdf|gBeg a2 (gf)|eagf ecdB|1 c2 A2 A2 (cd):|2 c2 A2 A4||
